**harm	**harte	**kern	**silbe	**rhyme	**timestamp	**phrase	**leadinstrument
*M12/8	*M12/8	*ICvox	*	*	*	*	*
*	*	*VRlead	*	*	*	*	*
*	*	*Hstimme	*	*	*	*	*
*F:	*F:	*C:	*	*	*	*	*
*	*	*M12/8	*	*	*	*	*
*	*	*clefGv2	*	*	*	*	*
1r;	N	r;	.	.	0	.	r
=1	=1	=1	=1	=1	=1	=1	=1
*>Letter>A	*>Letter>A	*>Letter>A	*>Letter>A	*>Letter>A	*>Letter>A	*>Letter>A	*>Letter>A
*>Label>Intro	*>Label>Intro	*>Label>Intro	*>Label>Intro	*>Label>Intro	*>Label>Intro	*>Label>Intro	*>Label>Intro
2.V	C:maj	4g	Un-	.	0.267	newline	r
.	.	8g	-for-	.	.	.	.
.	.	8a	-get-	.	.	.	.
.	.	8b	-a-	.	.	.	.
.	.	[8a	ble	.	.	.	.
2.iii	A:min	4.a]	_	.	2.202	.	r
.	.	4.c	Ooh	.	.	.	.
=2	=2	=2	=2	=2	=2	=2	=2
2.vi7	D:min7	4d	_	.	4.136	.	r
.	.	8r	.	.	.	.	.
.	.	4.f	That's	.	.	.	.
2.II7	G:7	4.e	what	.	6.071	.	r
.	.	4.d	you	.	.	.	.
=3	=3	=3	=3	=3	=3	=3	=3
2.V	C:maj	2.c	are	.	8.005	.	r
2.III7	A:7	4r	.	.	9.94	.	r
.	.	2r	.	.	.	.	.
=4	=4	=4	=4	=4	=4	=4	=4
2.vi7	D:min7	1.r	.	.	11.874	.	r
2.II7	G:9	.	.	.	13.809	.	r
=5	=5	=5	=5	=5	=5	=5	=5
*>Letter>B	*>Letter>B	*>Letter>B	*>Letter>B	*>Letter>B	*>Letter>B	*>Letter>B	*>Letter>B
*>Label>Verse	*>Label>Verse	*>Label>Verse	*>Label>Verse	*>Label>Verse	*>Label>Verse	*>Label>Verse	*>Label>Verse
8%9VM7	C:maj7	8.r	.	.	15.743	newline	voice
.	.	[8.?G	un	.	.	.	.
.	.	8?G]	_	.	.	.	.
.	.	8?A	-for-	.	.	.	.
.	.	16?B	-get-	.	.	.	.
.	.	16?B	-a-	.	.	.	.
.	C:maj7	[4.?B	-ble	.	.	.	.
4.#IV+	B:aug	4B]	_	.	18.634	.	voice
.	.	8r	.	.	.	.	.
=6	=6	=6	=6	=6	=6	=6	=6
1.V	C:maj	4.r	.	.	19.598	.	voice
.	.	8.r	.	.	.	.	.
.	.	16B	Mmmh	.	.	.	.
.	.	[8d	_	.	.	.	.
.	.	4.d_	_	.	.	.	.
.	.	4d]	_	.	.	.	.
.	.	8B	that's	.	.	.	.
=7	=7	=7	=7	=7	=7	=7	=7
1.-viio	E-:dim	8r	.	.	23.452	.	voice
.	.	8c	what	.	.	.	.
.	.	16A	you	.	.	.	.
.	.	[16B	are	A	.	.	.
.	.	4.B_	_	.	.	.	.
.	.	4B]	_	.	.	.	.
.	.	8r	.	.	.	.	.
.	.	4.r	.	.	.	.	.
=8	=8	=8	=8	=8	=8	=8	=8
1.-viio	E-:dim	1.r	.	.	27.307	.	voice
=9	=9	=9	=9	=9	=9	=9	=9
1.I7	F:maj7	8.r	.	.	31.161	newline	voice
.	.	[8.?c	un	.	.	.	.
.	.	8?c]	_	.	.	.	.
.	.	8.?d	-for-	.	.	.	.
.	.	16?e	-get-	.	.	.	.
.	.	16?e	-a-	.	.	.	.
.	.	[16?e	-ble	.	.	.	.
.	.	4e_	_	.	.	.	.
.	.	4.e]	_	.	.	.	.
=10	=10	=10	=10	=10	=10	=10	=10
1.I7	F:maj7	2.r	.	.	34.987	.	voice
.	.	4g	Though	.	.	.	.
.	.	8.e	near	.	.	.	.
.	.	8.d	or	.	.	.	.
.	.	[8e	far	A	.	.	.
=11	=11	=11	=11	=11	=11	=11	=11
2.VI7	D:7	1.e]	_	.	38.812	.	voice
2.vie	D:sus4(b7)/2	.	.	.	40.725	.	voice
=12	=12	=12	=12	=12	=12	=12	=12
2.vio7b	D:hdim7/b3	1.r	.	.	42.638	.	voice
2.VI7b	D:7/3	.	.	.	44.55	.	voice
=13	=13	=13	=13	=13	=13	=13	=13
1.IV	B-:maj	8.r	.	.	46.463	newline	voice
.	.	8.f	like	.	.	.	.
.	.	4r	.	.	.	.	.
.	.	8g	a	.	.	.	.
.	.	[4.g	song	.	.	.	.
.	.	8g]	_	.	.	.	.
.	.	8f	of	.	.	.	.
.	.	[8f	love	.	.	.	.
=14	=14	=14	=14	=14	=14	=14	=14
1.iv	B-:min	8f]	_	.	50.272	.	voice
.	.	4r	.	.	.	.	.
.	.	8r	.	.	.	.	.
.	.	8g	that	.	.	.	.
.	.	16g	clings	B	.	.	.
.	.	[16a	_	.	.	.	.
.	.	8a]	_	.	.	.	.
.	.	16g	to	.	.	.	.
.	.	[8.f	me	.	.	.	.
.	.	4.f]	_	.	.	.	.
=15	=15	=15	=15	=15	=15	=15	=15
2.I	F:maj	4r	.	.	54.081	.	voice
.	.	[8e	Ooh	.	.	.	.
.	.	4.e]	_	.	.	.	.
2.v	C:min6	8e#-	how	.	55.985	.	voice
.	.	8c	the	.	.	.	.
.	.	8e#-	thought	.	.	.	.
.	.	8r	.	.	.	.	.
.	.	8c	of	.	.	.	.
.	.	8e#-	you	.	.	.	.
=16	=16	=16	=16	=16	=16	=16	=16
1.VI7	D:7	8c	_	.	57.889	.	voice
.	.	4e#-	does	.	.	.	.
.	.	4r	.	.	.	.	.
.	.	16d	things	B	.	.	.
.	.	[16e	_	.	.	.	.
.	.	8e]	_	.	.	.	.
.	.	16d	to	.	.	.	.
.	.	[8.c	me	.	.	.	.
.	.	4.c]	_	.	.	.	.
=17	=17	=17	=17	=17	=17	=17	=17
1.II7	G:9	4.r	.	.	61.698	newline	voice
.	.	8r	.	.	.	.	.
.	.	16A	nev-	.	.	.	.
.	.	[8.A	-er	.	.	.	.
.	.	2A]	_	.	.	.	.
.	.	8d	be-	.	.	.	.
.	.	[8A	-fore	C	.	.	.
=18	=18	=18	=18	=18	=18	=18	=18
8%9II7	G:9	4A]	_	.	65.552	.	voice
.	.	8r	.	.	.	.	.
.	.	4.r	.	.	.	.	.
.	G:9	4.r	.	.	.	.	.
4.#I7	F#:7	4r	.	.	68.442	.	voice
.	.	[8A	has	.	.	.	.
=19	=19	=19	=19	=19	=19	=19	=19
1.II7	G:7	8.A]	_	.	69.406	.	voice
.	.	8B	some-	.	.	.	.
.	.	[16B	-one	.	.	.	.
.	.	4B]	_	.	.	.	.
.	.	8r	.	.	.	.	.
.	.	4.r	.	.	.	.	.
.	.	4f	been	.	.	.	.
.	.	[8B	more	C	.	.	.
=20	=20	=20	=20	=20	=20	=20	=20
1.II7	G:7	4.B_	_	.	73.26	.	voice
.	.	8B]	_	.	.	.	.
.	.	4r	.	.	.	.	.
.	.	8r	.	.	.	.	.
.	.	8A	mmh	.	.	.	.
.	.	[8B	_	.	.	.	.
.	.	8B]	_	.	.	.	.
.	.	16e	_	.	.	.	.
.	.	16e	_	.	.	.	.
.	.	16B-	_	.	.	.	.
.	.	16A	_	.	.	.	.
=21	=21	=21	=21	=21	=21	=21	=21
*>Letter>B	*>Letter>B	*>Letter>B	*>Letter>B	*>Letter>B	*>Letter>B	*>Letter>B	*>Letter>B
*>Label>Verse	*>Label>Verse	*>Label>Verse	*>Label>Verse	*>Label>Verse	*>Label>Verse	*>Label>Verse	*>Label>Verse
8%9VM7	C:maj7	8A	_	.	77.113	newline	voice
.	.	8A-	_	.	.	.	.
.	.	8r	.	.	.	.	.
.	.	8.G	Un-	.	.	.	.
.	.	8A	-for-	.	.	.	.
.	.	16B	-get-	(D	.	.	.
.	C:maj7	16B	-a-	.	.	.	.
.	.	[16B	-ble	d)	.	.	.
.	.	4B_	_	.	.	.	.
4.#IV+	B:aug	4.B]	_	.	80.009	.	voice
=22	=22	=22	=22	=22	=22	=22	=22
1.V	C:maj	4.r	.	.	80.974	.	voice
.	.	4r	.	.	.	.	.
.	.	16r	.	.	.	.	.
.	.	16B	Ooh	.	.	.	.
.	.	4.d	_	.	.	.	.
.	.	16B	in	.	.	.	.
.	.	8A	_	.	.	.	.
.	.	8B	e-	.	.	.	.
.	.	16A	-very	.	.	.	.
=23	=23	=23	=23	=23	=23	=23	=23
1.-viio	E-:dim	[2.?B	way	.	84.834	.	voice
.	.	4.B]	_	.	.	.	.
.	.	4.r	.	.	.	.	.
=24	=24	=24	=24	=24	=24	=24	=24
1.-viio	E-:dim	1.r	.	.	88.694	.	voice
=25	=25	=25	=25	=25	=25	=25	=25
1.I7	F:maj7	8.r	.	.	92.555	newline	voice
.	.	[8.?c	and	.	.	.	.
.	.	8?c]	_	.	.	.	.
.	.	8.?d	for	.	.	.	.
.	.	16?e	e-	(D	.	.	.
.	.	16?e	-ver-	d	.	.	.
.	.	[16?e	-more	C)	.	.	.
.	.	4?e_	_	.	.	.	.
.	.	4.e]	_	.	.	.	.
=26	=26	=26	=26	=26	=26	=26	=26
1.I7	F:maj7	4.r	.	.	96.386	.	voice
.	.	4.r	.	.	.	.	.
.	.	4g	I	.	.	.	.
.	.	4e	in-	.	.	.	.
.	.	[4e	-tend	.	.	.	.
=27	=27	=27	=27	=27	=27	=27	=27
2.VI7	D:7	8.e]	_	.	100.217	.	voice
.	.	8d	to	.	.	.	.
.	.	[16e	stay	.	.	.	.
.	.	4.e_	_	.	.	.	.
2.vie	D:sus4(b7)/2	4.e]	_	.	102.133	.	voice
.	.	8r	.	.	.	.	.
.	.	4r	.	.	.	.	.
=28	=28	=28	=28	=28	=28	=28	=28
2.vio7b	D:hdim7/b3	1.r	.	.	104.049	.	voice
2.VI7b	D:7/3	.	.	.	105.964	.	voice
=29	=29	=29	=29	=29	=29	=29	=29
1.IV	B-:maj	4r	.	.	107.88	newline	voice
.	.	8f	That's	.	.	.	.
.	.	8r	.	.	.	.	.
.	.	8.g	why	.	.	.	.
.	.	16g	dar	.	.	.	.
.	.	8f	_	.	.	.	.
.	.	4f	ling	.	.	.	.
.	.	4.r	.	.	.	.	.
=30	=30	=30	=30	=30	=30	=30	=30
1.iv	B-:min	4.r	.	.	111.726	.	voice
.	.	8r	.	.	.	.	.
.	.	8f	it's	.	.	.	.
.	.	16r	.	.	.	.	.
.	.	[16g	in	.	.	.	.
.	.	16g]	_	.	.	.	.
.	.	16r	.	.	.	.	.
.	.	8a	cre-	(D	.	.	.
.	.	16g	-di-	.	.	.	.
.	.	[16f	-ble	d)	.	.	.
.	.	4.f]	_	.	.	.	.
=31	=31	=31	=31	=31	=31	=31	=31
2.I	F:maj	4.r	.	.	115.573	.	voice
.	.	8.r	.	.	.	.	.
.	.	8.e#-	that	.	.	.	.
2.v	C:min6	16?e#-	some	.	117.496	.	voice
.	.	8?c	_	.	.	.	.
.	.	16?e#-	one	.	.	.	.
.	.	[8?c	_	.	.	.	.
.	.	8?c]	_	.	.	.	.
.	.	8?e#-	so	.	.	.	.
.	.	8?e#-	un	.	.	.	.
=32	=32	=32	=32	=32	=32	=32	=32
1.VI7	D:7	8?c	_	.	119.419	.	voice
.	.	8.?d	for-	.	.	.	.
.	.	16?e	-get-	(D	.	.	.
.	.	16?d	-a-	.	.	.	.
.	.	[16?c	-ble	d)	.	.	.
.	.	4c_	_	.	.	.	.
.	.	8c]	_	.	.	.	.
.	.	4r	.	.	.	.	.
.	.	4.r	.	.	.	.	.
=33	=33	=33	=33	=33	=33	=33	=33
1.II7	G:9	4r	.	.	123.265	newline	voice
.	.	[8G	thinks	.	.	.	.
.	.	8.G]	_	.	.	.	.
.	.	8A	that	.	.	.	.
.	.	[16B	I	.	.	.	.
.	.	16B]	_	.	.	.	.
.	.	[16G	am	.	.	.	.
.	.	4G_	_	.	.	.	.
.	.	4G]	_	.	.	.	.
.	.	8r	.	.	.	.	.
=34	=34	=34	=34	=34	=34	=34	=34
2.V	C:sus4(b7,9)	4.r	.	.	127.331	.	voice
.	.	8.G	un-	.	.	.	.
.	.	8.r	.	.	.	.	.
2.V7	C:7	8r	.	.	129.364	.	voice
.	.	8.d	-for-	.	.	.	.
.	.	[16d	-get	.	.	.	.
.	.	8d]	_	.	.	.	.
.	.	8A	a-	.	.	.	.
.	.	[8d	-ble	.	.	.	.
=35	=35	=35	=35	=35	=35	=35	=35
1.I7	F:maj7	8d]	_	.	131.397	.	voice
.	.	8d	too	.	.	.	.
.	.	[8c	_	.	.	.	.
.	.	4.c_	_	.	.	.	.
.	.	2.c]	_	.	.	.	.
=36	=36	=36	=36	=36	=36	=36	=36
1.VI7	D:9	2.r	.	.	135.463	.	voice
.	.	4.;b-	Please	.	.	.	.
.	.	8;a	_	.	.	.	.
.	.	8;g#Q	_	.	.	.	.
.	.	8;a	won't	.	.	.	.
.	.	8;f	you	.	.	.	.
=37	=37	=37	=37	=37	=37	=37	=37
1.II7	G:7	8;a	think	.	139.529	newline	voice
.	.	16;f	that	.	.	.	.
.	.	8;f	I	.	.	.	.
.	.	[16;d	am	.	.	.	.
.	.	4.;d]	_	.	.	.	.
.	.	4.r	.	.	.	.	.
.	.	8.;b-	un-	.	.	.	.
.	.	8.;a	-for-	.	.	.	.
=38	=38	=38	=38	=38	=38	=38	=38
1.V7	C:7	16;f	-get-	.	143.613	.	voice
.	.	16;g	-a-	.	.	.	.
.	.	8;a	-ble	.	.	.	.
.	.	8;f	_	.	.	.	.
.	.	4.;g	_	.	.	.	.
.	.	4.r	.	.	.	.	.
.	.	4r	.	.	.	.	.
.	.	[8;f	too	.	.	.	.
=39	=39	=39	=39	=39	=39	=39	=39
1.I	F:maj	1.;f_	_	.	147.696	.	voice
=40	=40	=40	=40	=40	=40	=40	=40
1.I	F:maj	2.;f]	_	.	151.78	.	voice
.	.	4r	.	.	.	.	.
.	.	2r	.	.	.	.	.
=41	=41	=41	=41	=41	=41	=41	=41
1r;	N	r;	.	.	160.288	.	r
=42	=42	=42	=42	=42	=42	=42	=42
1r;	N	r;	.	.	164.049	.	r
*-	*-	*-	*-	*-	*-	*-	*-
!!!BillboardChartDate: 1959/11/02
!!!BillboardPeak: 17
!!!BillboardWeeksOnChart: 13
!!!COC: Dinah Washington
!!!ENC: Nathaniel Condit-Schultz
!!!EST: Awating manual error checking and editing.
!!!OTL: Unforgettable
!!!RDF**harte: Chris Harte's syntax, used by MIREX
!!!RDF**harmony: **recip + pitch class of root + harmonic quality
!!!RDF**leadinstrument: original McGill primary instrumentation annotation
!!!RDF**phrase: newline = linebreak in original McGill transcription
!!!RDF**timestamp: McGill audio timestamp in seconds
!!!RDT: 2017/01/12/
!!!SampleActualRank: 29
!!!SampleID#: 0192
!!!SampleTargetRank: 30
!!!MBID: ea655441-164e-450c-b563-b745cdba4712
